icon-themes/sifr_svg/cmd/lc_arrowshapes.down-arrow-callout.svg

<svg viewBox="0 0 24 24" xmlns="http://www.w3.org/2000/svg"><g fill="#555753"><path d="m2 2v11h7v2h-4v1.777344l5.875 5.222656h2.25l5.875-5.222656v-1.777344h-4v-2h7v-11zm2 2h16v7h-7v6h2.138672l-3.138672 3-3.1386719-3h2.1386719v-6h-7z"/><path d="m4 4v7h7v6h-2.1386719l3.1386719 3 3.138672-3h-2.138672v-6h7v-7z" opacity=".35"/></g></svg>

<svg viewBox="0 0 24 24" xmlns="http://www.w3.org/2000/svg">
  <path
     style="fill:#555753"
     d="M 2 2 L 2 13 L 9 13 L 9 15 L 5 15 L 5 16.777344 L 10.875 22 L 13.125 22 L 19 16.777344 L 19 15 L 15 15 L 15 13 L 22 13 L 22 2 L 2 2 z M 4 4 L 20 4 L 20 11 L 13 11 L 13 17 L 15.138672 17 L 12 20 L 8.8613281 17 L 11 17 L 11 11 L 4 11 L 4 4 z "
     />
  <path
     style="opacity:0.35;fill:#555753"
     d="m 4,4 v 7 h 7 v 6 H 8.8613281 L 12,20 15.138672,17 H 13 v -6 h 7 V 4 Z"
     />
</svg>
